X:769
%%etbk:tnset id:501,pos:2,rep:3x,ant:
%%etbk:pldat 2016-02-04T18:38,2016-02-03T15:43,2016-02-02T16:12,2016-02-01T18:12,2016-01-30T14:03,2016-01-28T18:47,2016-01-27T16:16,2016-01-26T15:53
T: Summer Waltz
C: Klaus Pfister
Z: Piano Box Version by Martin Fleischmann
H: Created 2016-01-26 /  Last Modified 2016-01-26
R: waltz
M: 3/4
L: 1/8
K: Amaj
|:"A" c3BA2 | "E"B3AG2 | "A"A3 BAG | E4 AB | c3Bc2 | "D" d3cd2 | "E"e6 | a2e2d2 |
"A" c3BA2 | "E" B3AG2 | "A" AG AB AG | E4 F2 | "E" G3FG2 |1"D" A3GA2 | "E" B6|-B2A2B2:|2 E2c2B2 | "A" A6 |-A4 B2|
|: "f#m" c6| f6| "D" d6 | "E" G6 | "A" c3 dcB | A2E2c2 | "E" B6 | d2 c2 B2 |
 "f#m" c6| f6| "D" d6 | "E" G6 | "A" c3 BA2 | "E" B3 A G2 | "A" A6|-A2 A2 B2 :|


